build/img/header-shape-mobile.svg

<svg width="458" height="367" viewBox="0 0 458 367" fill="none" xmlns="http://www.w3.org/2000/svg">
<mask id="path-1-inside-1" fill="white">
<path fill-rule="evenodd" clip-rule="evenodd" d="M45.9552 3.82996C45.9556 3.809 45.9557 3.78799 45.9557 3.76694C45.9557 1.68652 44.2692 0 42.1888 0C40.1084 0 38.4219 1.68652 38.4219 3.76694C38.4219 5.84736 40.1084 7.53388 42.1888 7.53388C42.777 7.53388 43.3337 7.39907 43.8297 7.15866L128.104 153.126L7.49179 153.126C7.21921 151.314 5.65535 149.924 3.76694 149.924C1.68652 149.924 0 151.611 0 153.691C0 155.771 1.68652 157.458 3.76694 157.458C4.31783 157.458 4.84111 157.34 5.31276 157.127L122.603 360.279C121.802 360.97 121.295 361.992 121.295 363.133C121.295 365.213 122.981 366.9 125.062 366.9C127.142 366.9 128.829 365.213 128.829 363.133C128.829 361.757 128.091 360.553 126.989 359.896L187.236 255.545L248.92 362.385L249.497 363.385L250.074 362.385L456.509 4.82993L457.086 3.82993H455.931L45.9552 3.82996ZM126.063 359.5L186.658 254.545L128.681 154.126L7.50903 154.126C7.39484 155.119 6.8946 155.994 6.1622 156.598L123.441 359.731C123.932 359.497 124.482 359.366 125.062 359.366C125.408 359.366 125.744 359.413 126.063 359.5ZM44.6651 6.60563C45.1982 6.1402 45.599 5.52703 45.8037 4.82996L455.354 4.82993L249.497 361.385L187.813 254.545L245.79 154.126L246.368 153.126H245.213H129.259L44.6651 6.60563ZM129.836 154.126L187.236 253.545L244.635 154.126H129.836Z"/>
</mask>
<path fill-rule="evenodd" clip-rule="evenodd" d="M45.9552 3.82996C45.9556 3.809 45.9557 3.78799 45.9557 3.76694C45.9557 1.68652 44.2692 0 42.1888 0C40.1084 0 38.4219 1.68652 38.4219 3.76694C38.4219 5.84736 40.1084 7.53388 42.1888 7.53388C42.777 7.53388 43.3337 7.39907 43.8297 7.15866L128.104 153.126L7.49179 153.126C7.21921 151.314 5.65535 149.924 3.76694 149.924C1.68652 149.924 0 151.611 0 153.691C0 155.771 1.68652 157.458 3.76694 157.458C4.31783 157.458 4.84111 157.34 5.31276 157.127L122.603 360.279C121.802 360.97 121.295 361.992 121.295 363.133C121.295 365.213 122.981 366.9 125.062 366.9C127.142 366.9 128.829 365.213 128.829 363.133C128.829 361.757 128.091 360.553 126.989 359.896L187.236 255.545L248.92 362.385L249.497 363.385L250.074 362.385L456.509 4.82993L457.086 3.82993H455.931L45.9552 3.82996ZM126.063 359.5L186.658 254.545L128.681 154.126L7.50903 154.126C7.39484 155.119 6.8946 155.994 6.1622 156.598L123.441 359.731C123.932 359.497 124.482 359.366 125.062 359.366C125.408 359.366 125.744 359.413 126.063 359.5ZM44.6651 6.60563C45.1982 6.1402 45.599 5.52703 45.8037 4.82996L455.354 4.82993L249.497 361.385L187.813 254.545L245.79 154.126L246.368 153.126H245.213H129.259L44.6651 6.60563ZM129.836 154.126L187.236 253.545L244.635 154.126H129.836Z" fill="white"/>
<path d="M45.9552 3.82996L44.9554 3.81359L44.9387 4.82996L45.9552 4.82996L45.9552 3.82996ZM43.8297 7.15866L44.6957 6.65866L44.2306 5.85307L43.3935 6.25879L43.8297 7.15866ZM128.104 153.126L128.104 154.126L129.836 154.126L128.97 152.626L128.104 153.126ZM7.49179 153.126L6.50291 153.275L6.63095 154.126L7.49179 154.126L7.49179 153.126ZM5.31276 157.127L6.17879 156.627L5.72657 155.844L4.90197 156.215L5.31276 157.127ZM122.603 360.279L123.256 361.036L123.882 360.496L123.469 359.779L122.603 360.279ZM126.989 359.896L126.123 359.396L125.63 360.249L126.477 360.754L126.989 359.896ZM187.236 255.545L188.102 255.045L187.236 253.545L186.37 255.045L187.236 255.545ZM248.92 362.385L249.786 361.885L249.786 361.885L248.92 362.385ZM249.497 363.385L248.631 363.885L249.497 365.385L250.363 363.885L249.497 363.385ZM250.074 362.385L249.208 361.885L249.208 361.885L250.074 362.385ZM456.509 4.82993L457.375 5.32993L457.375 5.32992L456.509 4.82993ZM457.086 3.82993L457.952 4.32992L458.818 2.82993H457.086V3.82993ZM455.931 3.82993L455.931 2.82993L455.931 2.82993L455.931 3.82993ZM186.658 254.545L187.524 255.045L187.813 254.545L187.524 254.045L186.658 254.545ZM126.063 359.5L125.798 360.464L126.542 360.669L126.929 360L126.063 359.5ZM128.681 154.126L129.547 153.626L129.259 153.126L128.681 153.126L128.681 154.126ZM7.50903 154.126L7.50902 153.126L6.61743 153.126L6.51557 154.012L7.50903 154.126ZM6.1622 156.598L5.52592 155.827L4.87301 156.366L5.29618 157.098L6.1622 156.598ZM123.441 359.731L122.575 360.231L123.037 361.032L123.872 360.634L123.441 359.731ZM45.8037 4.82996L45.8037 3.82996L45.0551 3.82996L44.8442 4.54826L45.8037 4.82996ZM44.6651 6.60563L44.0074 5.85233L43.3878 6.3933L43.7991 7.10563L44.6651 6.60563ZM455.354 4.82993L456.22 5.32993L457.086 3.82993L455.354 3.82993L455.354 4.82993ZM249.497 361.385L248.631 361.885L249.497 363.385L250.363 361.885L249.497 361.385ZM187.813 254.545L186.947 254.045L186.658 254.545L186.947 255.045L187.813 254.545ZM245.79 154.126L246.656 154.626L246.656 154.626L245.79 154.126ZM246.368 153.126L247.234 153.626L248.1 152.126H246.368V153.126ZM129.259 153.126L128.393 153.626L128.681 154.126H129.259V153.126ZM187.236 253.545L186.37 254.045L187.236 255.545L188.102 254.045L187.236 253.545ZM129.836 154.126V153.126H128.104L128.97 154.626L129.836 154.126ZM244.635 154.126L245.502 154.626L246.368 153.126H244.635V154.126ZM44.9557 3.76694C44.9557 3.78255 44.9556 3.7981 44.9554 3.81359L46.9551 3.84634C46.9555 3.81989 46.9557 3.79342 46.9557 3.76694H44.9557ZM42.1888 1C43.7169 1 44.9557 2.2388 44.9557 3.76694H46.9557C46.9557 1.13423 44.8215 -1 42.1888 -1V1ZM39.4219 3.76694C39.4219 2.2388 40.6607 1 42.1888 1V-1C39.5561 -1 37.4219 1.13423 37.4219 3.76694H39.4219ZM42.1888 6.53388C40.6607 6.53388 39.4219 5.29508 39.4219 3.76694H37.4219C37.4219 6.39964 39.5561 8.53388 42.1888 8.53388V6.53388ZM43.3935 6.25879C43.0306 6.43473 42.6227 6.53388 42.1888 6.53388V8.53388C42.9313 8.53388 43.6369 8.3634 44.2659 8.05853L43.3935 6.25879ZM128.97 152.626L44.6957 6.65866L42.9637 7.65866L127.238 153.626L128.97 152.626ZM7.49179 154.126L128.104 154.126L128.104 152.126L7.49179 152.126L7.49179 154.126ZM3.76694 150.924C5.15314 150.924 6.30282 151.944 6.50291 153.275L8.48067 152.977C8.13559 150.683 6.15756 148.924 3.76694 148.924V150.924ZM1 153.691C1 152.163 2.2388 150.924 3.76694 150.924V148.924C1.13423 148.924 -1 151.058 -1 153.691H1ZM3.76694 156.458C2.2388 156.458 1 155.219 1 153.691H-1C-1 156.324 1.13423 158.458 3.76694 158.458V156.458ZM4.90197 156.215C4.5569 156.371 4.17343 156.458 3.76694 156.458V158.458C4.46224 158.458 5.12531 158.308 5.72355 158.039L4.90197 156.215ZM123.469 359.779L6.17879 156.627L4.44674 157.627L121.737 360.779L123.469 359.779ZM122.295 363.133C122.295 362.295 122.666 361.545 123.256 361.036L121.949 359.522C120.938 360.395 120.295 361.689 120.295 363.133H122.295ZM125.062 365.9C123.534 365.9 122.295 364.661 122.295 363.133H120.295C120.295 365.765 122.429 367.9 125.062 367.9V365.9ZM127.829 363.133C127.829 364.661 126.59 365.9 125.062 365.9V367.9C127.695 367.9 129.829 365.765 129.829 363.133H127.829ZM126.477 360.754C127.289 361.239 127.829 362.123 127.829 363.133H129.829C129.829 361.39 128.893 359.867 127.502 359.037L126.477 360.754ZM186.37 255.045L126.123 359.396L127.855 360.396L188.102 256.045L186.37 255.045ZM249.786 361.885L188.102 255.045L186.37 256.045L248.054 362.885L249.786 361.885ZM250.363 362.885L249.786 361.885L248.054 362.885L248.631 363.885L250.363 362.885ZM249.208 361.885L248.631 362.885L250.363 363.885L250.94 362.885L249.208 361.885ZM455.643 4.32993L249.208 361.885L250.94 362.885L457.375 5.32993L455.643 4.32993ZM456.22 3.32994L455.643 4.32994L457.375 5.32992L457.952 4.32992L456.22 3.32994ZM455.931 4.82993H457.086V2.82993H455.931V4.82993ZM45.9552 4.82996L455.931 4.82993L455.931 2.82993L45.9552 2.82996L45.9552 4.82996ZM185.792 254.045L125.197 359L126.929 360L187.524 255.045L185.792 254.045ZM127.815 154.626L185.792 255.045L187.524 254.045L129.547 153.626L127.815 154.626ZM7.50903 155.126L128.681 155.126L128.681 153.126L7.50902 153.126L7.50903 155.126ZM6.79849 157.37C7.72338 156.607 8.35771 155.499 8.50248 154.24L6.51557 154.012C6.43198 154.739 6.06582 155.382 5.52592 155.827L6.79849 157.37ZM124.307 359.231L7.02823 156.098L5.29618 157.098L122.575 360.231L124.307 359.231ZM123.872 360.634C124.231 360.462 124.634 360.366 125.062 360.366V358.366C124.329 358.366 123.633 358.532 123.01 358.829L123.872 360.634ZM125.062 360.366C125.318 360.366 125.564 360.4 125.798 360.464L126.328 358.536C125.923 358.425 125.499 358.366 125.062 358.366V360.366ZM44.8442 4.54826C44.6944 5.05847 44.4003 5.50929 44.0074 5.85233L45.3228 7.35893C45.9961 6.7711 46.5037 5.99559 46.7632 5.11167L44.8442 4.54826ZM455.354 3.82993L45.8037 3.82996L45.8037 5.82996L455.354 5.82993L455.354 3.82993ZM250.363 361.885L456.22 5.32993L454.488 4.32993L248.631 360.885L250.363 361.885ZM186.947 255.045L248.631 361.885L250.363 360.885L188.679 254.045L186.947 255.045ZM244.924 153.626L186.947 254.045L188.679 255.045L246.656 154.626L244.924 153.626ZM245.502 152.626L244.924 153.626L246.656 154.626L247.234 153.626L245.502 152.626ZM245.213 154.126H246.368V152.126H245.213V154.126ZM129.259 154.126H245.213V152.126H129.259V154.126ZM43.7991 7.10563L128.393 153.626L130.125 152.626L45.5311 6.10563L43.7991 7.10563ZM188.102 253.045L130.702 153.626L128.97 154.626L186.37 254.045L188.102 253.045ZM243.769 153.626L186.37 253.045L188.102 254.045L245.502 154.626L243.769 153.626ZM129.836 155.126H244.635V153.126H129.836V155.126Z" fill="black" fill-opacity="0.5" mask="url(#path-1-inside-1)"/>
</svg>

<svg width="458" height="367" fill="none" xmlns="http://www.w3.org/2000/svg"><mask id="a" fill="#fff"><path fill-rule="evenodd" clip-rule="evenodd" d="M45.955 3.83v-.063a3.767 3.767 0 10-2.125 3.392l84.274 145.967H7.492a3.768 3.768 0 00-7.492.565 3.767 3.767 0 005.313 3.436l117.29 203.152a3.767 3.767 0 104.386-.383l60.247-104.351 61.684 106.84.577 1 .577-1L456.509 4.83l.577-1H45.955zm80.108 355.67l60.595-104.955-57.977-100.419H7.509a3.76 3.76 0 01-1.347 2.472l117.279 203.133a3.802 3.802 0 012.622-.231zM44.665 6.606a3.77 3.77 0 001.139-1.776h409.55L249.497 361.385l-61.684-106.84 57.977-100.419.578-1H129.259L44.665 6.606zm85.171 147.52l57.4 99.419 57.399-99.419H129.836z"/></mask><path fill-rule="evenodd" clip-rule="evenodd" d="M45.955 3.83v-.063a3.767 3.767 0 10-2.125 3.392l84.274 145.967H7.492a3.768 3.768 0 00-7.492.565 3.767 3.767 0 005.313 3.436l117.29 203.152a3.767 3.767 0 104.386-.383l60.247-104.351 61.684 106.84.577 1 .577-1L456.509 4.83l.577-1H45.955zm80.108 355.67l60.595-104.955-57.977-100.419H7.509a3.76 3.76 0 01-1.347 2.472l117.279 203.133a3.802 3.802 0 012.622-.231zM44.665 6.606a3.77 3.77 0 001.139-1.776h409.55L249.497 361.385l-61.684-106.84 57.977-100.419.578-1H129.259L44.665 6.606zm85.171 147.52l57.4 99.419 57.399-99.419H129.836z" fill="#fff"/><path d="M45.955 3.83l-1-.016-.016 1.016h1.016v-1zM43.83 7.159l.866-.5-.465-.806-.837.406.436.9zm84.274 145.967v1h1.732l-.866-1.5-.866.5zm-120.612 0l-.99.149.129.851h.86v-1zm-2.18 4.001l.867-.5-.452-.783-.825.371.41.912zm117.291 203.152l.653.757.626-.54-.413-.717-.866.5zm4.386-.383l-.866-.5-.493.853.847.505.512-.858zm60.247-104.351l.866-.5-.866-1.5-.866 1.5.866.5zm61.684 106.84l.866-.5-.866.5zm.577 1l-.866.5.866 1.5.866-1.5-.866-.5zm.577-1l-.866-.5.866.5zM456.509 4.83l.866.5-.866-.5zm.577-1l.866.5.866-1.5h-1.732v1zm-1.155 0v-1 1zM186.658 254.545l.866.5.289-.5-.289-.5-.866.5zM126.063 359.5l-.265.964.744.205.387-.669-.866-.5zm2.618-205.374l.866-.5-.288-.5h-.578v1zm-121.172 0v-1h-.892l-.101.886.993.114zm-1.347 2.472l-.636-.771-.653.539.423.732.866-.5zm117.279 203.133l-.866.5.462.801.835-.398-.431-.903zM45.804 4.83v-1h-.749l-.21.718.959.282zm-1.139 1.776l-.658-.754-.62.541.412.713.866-.5zM455.354 4.83l.866.5.866-1.5h-1.732v1zM249.497 361.385l-.866.5.866 1.5.866-1.5-.866-.5zm-61.684-106.84l-.866-.5-.289.5.289.5.866-.5zm57.977-100.419l.866.5-.866-.5zm.578-1l.866.5.866-1.5h-1.732v1zm-117.109 0l-.866.5.288.5h.578v-1zm57.977 100.419l-.866.5.866 1.5.866-1.5-.866-.5zm-57.4-99.419v-1h-1.732l.866 1.5.866-.5zm114.799 0l.867.5.866-1.5h-1.733v1zM44.955 3.766v.048l2 .032v-.08h-2zM42.19 1a2.767 2.767 0 012.767 2.767h2A4.767 4.767 0 0042.189-1v2zm-2.767 2.767A2.767 2.767 0 0142.189 1v-2a4.767 4.767 0 00-4.767 4.767h2zm2.767 2.767a2.767 2.767 0 01-2.767-2.767h-2a4.767 4.767 0 004.767 4.767v-2zm1.205-.275a2.752 2.752 0 01-1.205.275v2c.742 0 1.448-.17 2.077-.475l-.872-1.8zm85.576 146.367L44.696 6.659l-1.732 1 84.274 145.967 1.732-1zm-121.478 1.5h120.612v-2H7.492v2zm-3.725-3.202a2.768 2.768 0 012.736 2.351l1.978-.298a4.768 4.768 0 00-4.714-4.053v2zM1 153.691a2.767 2.767 0 012.767-2.767v-2A4.767 4.767 0 00-1 153.691h2zm2.767 2.767A2.767 2.767 0 011 153.691h-2a4.767 4.767 0 004.767 4.767v-2zm1.135-.243a2.745 2.745 0 01-1.135.243v2c.695 0 1.358-.15 1.957-.419l-.822-1.824zm118.567 203.564L6.179 156.627l-1.732 1 117.29 203.152 1.732-1zm-1.174 3.354c0-.838.371-1.588.961-2.097l-1.307-1.514a4.76 4.76 0 00-1.654 3.611h2zm2.767 2.767a2.767 2.767 0 01-2.767-2.767h-2a4.767 4.767 0 004.767 4.767v-2zm2.767-2.767a2.767 2.767 0 01-2.767 2.767v2a4.767 4.767 0 004.767-4.767h-2zm-1.352-2.379a2.766 2.766 0 011.352 2.379h2a4.765 4.765 0 00-2.327-4.096l-1.025 1.717zm59.893-105.709l-60.247 104.351 1.732 1 60.247-104.351-1.732-1zm63.416 106.84l-61.684-106.84-1.732 1 61.684 106.84 1.732-1zm.577 1l-.577-1-1.732 1 .577 1 1.732-1zm-1.155-1l-.577 1 1.732 1 .577-1-1.732-1zM455.643 4.33L249.208 361.885l1.732 1L457.375 5.33l-1.732-1zm.577-1l-.577 1 1.732 1 .577-1-1.732-1zm-.289 1.5h1.155v-2h-1.155v2zm-409.976 0h409.976v-2H45.955v2zm139.837 249.215L125.197 359l1.732 1 60.595-104.955-1.732-1zm-57.977-99.419l57.977 100.419 1.732-1-57.977-100.419-1.732 1zm-120.306.5h121.172v-2H7.509v2zm-.71 2.244a4.762 4.762 0 001.703-3.13l-1.986-.228a2.76 2.76 0 01-.99 1.815l1.272 1.543zm117.508 201.861L7.028 156.098l-1.732 1 117.279 203.133 1.732-1zm-.435 1.403a2.744 2.744 0 011.19-.268v-2c-.733 0-1.429.166-2.052.463l.862 1.805zm1.19-.268c.256 0 .502.034.736.098l.53-1.928a4.78 4.78 0 00-1.266-.17v2zM44.844 4.548a2.77 2.77 0 01-.837 1.304l1.316 1.507a4.769 4.769 0 001.44-2.247l-1.919-.564zm410.51-.718H45.804v2h409.55v-2zM250.363 361.885L456.22 5.33l-1.732-1-205.857 356.555 1.732 1zm-63.416-106.84l61.684 106.84 1.732-1-61.684-106.84-1.732 1zm57.977-101.419l-57.977 100.419 1.732 1 57.977-100.419-1.732-1zm.578-1l-.578 1 1.732 1 .578-1-1.732-1zm-.289 1.5h1.155v-2h-1.155v2zm-115.954 0h115.954v-2H129.259v2zM43.799 7.106l84.594 146.52 1.732-1L45.531 6.106l-1.732 1zm144.303 245.939l-57.4-99.419-1.732 1 57.4 99.419 1.732-1zm55.667-99.419l-57.399 99.419 1.732 1 57.4-99.419-1.733-1zm-113.933 1.5h114.799v-2H129.836v2z" fill="#000" fill-opacity=".5" mask="url(#a)"/></svg>
